X:1
T:Condescension
T:D Major              Hezekiah Moors, 1809
T:Transcribed from Province Harmony, 1809.
T:Isaac Watts, 1709 (Hymn 45, Book 2)                  88. 88. (L. M.)
%%score [ ( 1 2 ) 3 4 ]
L:1/8
Q:1/4=90
M:2/4
K:D
V:1 treble nm="Tr." snm="Tr."
V:2 treble 
V:3 treble-8 nm="T." snm="T."
V:4 bass nm="B." snm="B."
V:1
 A2 | F2 A2 | d2 Ad | B2 A2 | G2 E2 | F2 G2 | AF GB | A2 G2 | F4 |: z2 D2 | F2 E/F/G | F2 A2 | %12
 G/F/E FG | A2 C2 | D>E FG | A2 f2 | ed cB | c3 d | d2 AG | F>A GB | Af ed | d2 c2 | d4 :| %23
[M:3/8][Q:1/4=70] z3 | A A F | GF A | BA G | G!fermata!F d/c/ | BA G | AG F/G/ | Ad/c/ B | c2 z || %32
[M:2/4][Q:1/4=90] d2 d2 | A2 A2 | F2 A2 | GE DE | F2 z2 | z2 A2 | d4- | d2 A2 | FD GE | F2 G2 | %42
 F4 | z4 ||[M:4/4] d4 d2 z d | c3 d dc z2 | A4 A2 z A | A3 A BA AB | A2 A2 A4 ||[M:2/4] A2 A A | %50
 A2 A2 | A2 A2 | A4 | d2 d d | d2 d2 | e2 d2 | !fermata!c2 d>c | A2 A2 | A2 c2 | de de | f2 e2 | %61
 d4 | c4 | d4- | d4 |] %65
V:2
 x2 | x4 | x4 | x4 | x4 | x4 | x4 | x4 | x4 |: x4 | x4 | x4 | x4 | x4 | x4 | x4 | x4 | x4 | x4 | %19
 x4 | x4 | x4 | x4 :|[M:3/8] x3 | x3 | x3 | x3 | x3 | x3 | x3 | x3 | x3 ||[M:2/4] x4 | x4 | x4 | %35
 x4 | x4 | x4 | x4 | x4 | x4 | x4 | x4 | x4 ||[M:4/4] B4 A2 x A | A3 A A2 x2 | F4 E2 x F | %47
 F3 x x x AG | F2 F2 F4 ||[M:2/4] x4 | x4 | x4 | x4 | x4 | x4 | x4 | x4 | x4 | x4 | x4 | x4 | x4 | %62
 x4 | x4 | x4 |] %65
V:3
"_Thy favors, Lord, surprise our souls; Will  the  Eternal  dwell with us?          What canst  thou find be –neath  the  poles   To    tempt   thy" D2 | %1
 F2 E2 | D2 A2 | G2 F2 | E2 B2 | A2 G2 | FD EG | F2 E2 | D4 |: z2 A2 | d2 c/d/e | d2 F2 | %12
 G/A/B AG | F2 E2 | D>E FG | %15
"_chariot  down–ward  thus?  To  tempt, To   tempt   thy     cha – riot downward thus?                 Still might he   fill     his   star – ry  throne,  And" A2 d2 | %16
 cB A^G | A3 A | B2 c2 | d>f eg | fa gf | f2 e2 | d4 :|[M:3/8] z3 | F F A | BA d | dc B | %27
 B!fermata!A B/A/ | %28
"_please his  ears  with   Ga   –  briel's  songs;          But the heav'nly Ma–jes – ty comes  down,          And bows     to    hear – ken to our tongues." GF F | %29
 GF D/E/ | FB/A/ ^G | A2 z ||[M:2/4] A2 A2 | F2 A2 | d2 dc | BG FG | A2 z2 | z4 | z2 A2 | d2 A2 | %40
 FD BG | F2 E2 | D4 | z4 || %44
[M:4/4]"_Great God! what poor returns      we pay,   For  love  so in  – fi – nite as thine!  Words are but air, and tongues but clay, Words are but" g4 f2 z d | %45
 e3 f fe z2 | d4 c2 z A | d3 f gf fe | d2 c2 d4 ||[M:2/4] d2 d d | d2 d2 | e2 d2 |{d} c4 | f2 f f | %54
"_air, and tongues but clay;  But    thy com–pas–sion,  thy    com–pas–sion's   all      di   –   vine." f2 f2 | %55
 g2 f2 | !fermata!e2 f>e | d2 A2 | d2 e2 | fe fg | a2 g2 | f4 | e4 | d4- | d4 |] %65
V:4
 D,2 | D,2 D,2 | D,2 D,2 | E,2 F,2 | G,2 G,2 | F,2 E,2 | D,2 C,2 | D,2 A,,2 | D,4 |: z2 D,2 | %10
 D,2 A,,2 | D,2 D,2 | E,/F,/G, F,E, | D,2 A,,2 | D,>E, F,G, | A,2 D,2 | E,2 E,2 | A,,3 D, | %18
 G,2 F,E, | D,2 E,2 | F,2 G,/A,/B, | A,2 A,,2 | D,4 :|[M:3/8] z3 | D, D, D, | D,2 D, | D,2 D, | %27
 !fermata!D,2 D, | D,2 D, | D,E, F,/E,/ | D,2 E, | A,,2 z ||[M:2/4] D,2 D,2 | D,2 D,2 | D,2 F,2 | %35
 E,2 A,G, | F,2 A,2 | D4- | D4- | D2 A,2 | F,D, F,B, | A,2 A,,2 | D,4 | z4 ||[M:4/4] G,4 D,2 z D, | %45
 A,3 D A,2 z2 | D,4 A,,2 z D, | D,3 D, E,F, F,G, | A,2 A,2 D,4 ||[M:2/4] D,2 D, D, | D,2 D,2 | %51
 C,2 D,2 | A,,4 | D2 D D | D2 D2 | G,2 D,2 | !fermata!A,2 D,2 | D,2 D,2 | D,2 A,2 | DC B,G, | %60
 F,2 G,2 | A,4 | A,,4 | D,4- | D,4 |] %65

